X: 4084
T: Tis Good, Lord, To Be Here
M: 2/4
L: 1/4
Q: 1/4=100
%%pagewidth 200cm
%%continueall 1
%%leftmargin 0.5cm
%%rightmargin 0.5cm
%%topspace 0
%%musicspace 0
%%writefields Q 0
K: E
"^I""^ii"E|"^viio""^IV"F "^IV""^vi"A|"^vim7""^V"G "^viio""^IV"F|"^vim7""^V"E "^viio""^IV"B|"^vi""^vi"c e|"^viio""^IV"d "^Bb""^Bb"c|"^viio""^IV"B "^viio""^IV"G|"^I""^vi"A c|"^iim7""^I"B "^viio""^IV"A|"^IV""^IVs2"G "^vim7""^V"^A|"^vi""^iii"B "^viio""^IV"E|"^viio""^IV"F A|"^I""^vi"G "^ii""^I"F|"^vim7""^V"E|]
